client/src/img/craft-dash-logo.svg

<svg width="218" height="229" viewBox="0 0 218 229" fill="none" xmlns="http://www.w3.org/2000/svg">
<path d="M74.5002 114.5C74.5002 139.886 36.7548 156.231 11.3689 156.231C-14.0171 156.231 11.3688 132.386 11.3688 107C11.3688 81.6138 -14.0171 64.3005 11.3689 64.3005C36.7548 64.3005 74.5002 89.1138 74.5002 114.5Z" fill="#2FDAE4"/>
<path d="M152.007 210.713C152.007 236.099 133.346 216.856 107.96 216.856C82.574 216.856 55.9946 242.242 55.9946 216.856C55.9946 191.47 82.574 148.713 107.96 148.713C133.346 148.713 152.007 185.327 152.007 210.713Z" fill="#C521FF"/>
<path d="M206.717 114.096C206.717 139.482 232.103 160.061 206.717 160.061C181.331 160.061 145.43 139.482 145.43 114.096C145.43 88.71 181.331 68.1306 206.717 68.1306C232.103 68.1306 206.717 88.71 206.717 114.096Z" fill="#08E789"/>
<path d="M157 9.08271C157 34.4687 133.386 78.0827 108 78.0827C82.6141 78.0827 52.0001 34.4687 52.0001 9.08271C52.0001 -16.3033 82.6141 19.5826 108 19.5826C133.386 19.5826 157 -16.3033 157 9.08271Z" fill="#FF2D92"/>
</svg>

<svg width="218" height="229" fill="none" xmlns="http://www.w3.org/2000/svg"><path d="M74.5 114.5c0 25.386-37.745 41.731-63.131 41.731-25.386 0 0-23.845 0-49.231 0-25.386-25.386-42.7 0-42.7S74.5 89.114 74.5 114.5z" fill="#2FDAE4"/><path d="M152.007 210.713c0 25.386-18.661 6.143-44.047 6.143-25.386 0-51.965 25.386-51.965 0s26.579-68.143 51.965-68.143c25.386 0 44.047 36.614 44.047 62z" fill="#C521FF"/><path d="M206.717 114.096c0 25.386 25.386 45.965 0 45.965s-61.287-20.579-61.287-45.965c0-25.386 35.901-45.965 61.287-45.965 25.386 0 0 20.579 0 45.965z" fill="#08E789"/><path d="M157 9.083c0 25.386-23.614 69-49 69s-56-43.614-56-69c0-25.386 30.614 10.5 56 10.5s49-35.886 49-10.5z" fill="#FF2D92"/></svg>
